src/images/more__button320.svg

<svg width="240" height="36" viewBox="0 0 240 36" fill="none" xmlns="http://www.w3.org/2000/svg">
<path fill-rule="evenodd" clip-rule="evenodd" d="M234 1H6C3.23858 1 1 3.23858 1 6V30C1 32.7614 3.23857 35 5.99999 35H234C236.761 35 239 32.7614 239 30V6C239 3.23858 236.761 1 234 1ZM6 0C2.68629 0 0 2.68629 0 6V30C0 33.3137 2.68629 36 5.99999 36H234C237.314 36 240 33.3137 240 30V6C240 2.68629 237.314 0 234 0H6Z" fill="#424242"/>
</svg>

<svg width="240" height="36" fill="none" xmlns="http://www.w3.org/2000/svg"><path fill-rule="evenodd" clip-rule="evenodd" d="M234 1H6a5 5 0 0 0-5 5v24a5 5 0 0 0 5 5h228a5 5 0 0 0 5-5V6a5 5 0 0 0-5-5ZM6 0a6 6 0 0 0-6 6v24a6 6 0 0 0 6 6h228a6 6 0 0 0 6-6V6a6 6 0 0 0-6-6H6Z" fill="#424242"/></svg>
